packages/tokens/icons/coveoIcon/size16Px.svg

<svg viewBox="0 0 16 16" fill="none" xmlns="http://www.w3.org/2000/svg" width="1em" height="1em"><path d="M12.9686 3.01963C11.7637 1.82165 10.2203 1.14863 8.6363 1.00057C8.44676 0.987108 8.33845 1.21593 8.47383 1.35054L11.0055 3.86764C11.0191 3.8811 11.0055 3.90802 10.9785 3.89456C10.2474 3.3696 9.42154 3.07348 8.5686 2.99271C8.43322 2.97925 8.36553 3.14077 8.4603 3.235L10.1932 4.95793C10.2068 4.97139 10.1932 4.99831 10.1661 4.98485C9.6923 4.6618 9.15076 4.47335 8.59569 4.41952C8.50092 4.40606 8.44676 4.5272 8.51446 4.58105L11.4523 7.50195C11.52 7.56926 11.6283 7.51541 11.6148 7.4212C11.5606 6.86932 11.3711 6.33089 11.0462 5.85978C11.0326 5.84632 11.0597 5.8194 11.0732 5.83286L12.7385 7.48849C12.8332 7.58272 12.9957 7.50195 12.9822 7.38081C12.9145 6.54627 12.6166 5.71172 12.0886 4.99831C12.0751 4.98485 12.1022 4.95793 12.1157 4.97139L14.6474 7.48849C14.7828 7.62309 15.0129 7.51541 14.9994 7.3135C14.8504 5.7521 14.1736 4.21761 12.9686 3.01963ZM3.03136 3.01963C4.23628 1.82165 5.77967 1.14863 7.36367 1.00057C7.55321 0.987108 7.66152 1.21593 7.52614 1.35054L4.99443 3.86764C4.98089 3.8811 4.99443 3.90802 5.02151 3.89456C5.75259 3.3696 6.57844 3.07348 7.43137 2.99271C7.56675 2.97925 7.63444 3.14077 7.53967 3.235L5.80674 4.95793C5.79321 4.97139 5.80674 4.99831 5.83383 4.98485C6.30767 4.6618 6.84922 4.47335 7.40429 4.41952C7.49906 4.40606 7.55321 4.5272 7.48553 4.58105L4.54766 7.51541C4.47998 7.58272 4.37166 7.52888 4.38521 7.43464C4.43935 6.88278 4.6289 6.34436 4.95382 5.87324C4.96736 5.85978 4.94028 5.83286 4.92674 5.84632L3.26151 7.50195C3.16674 7.59617 3.00427 7.51541 3.01781 7.39427C3.09904 6.54627 3.39689 5.71172 3.92489 4.99831C3.93843 4.98485 3.91135 4.95793 3.89782 4.97139L1.35257 7.48849C1.21719 7.62309 0.987033 7.51541 1.00057 7.3135C1.1495 5.7521 1.82642 4.21761 3.03136 3.01963ZM3.03136 12.9803C4.23628 14.1783 5.77967 14.8514 7.36367 14.9994C7.55321 15.0129 7.66152 14.7841 7.52614 14.6494L4.99443 12.1323C4.98089 12.1189 4.99443 12.092 5.02151 12.1054C5.75259 12.6304 6.57844 12.9265 7.43137 13.0073C7.56675 13.0207 7.63444 12.8592 7.53967 12.765L5.80674 11.042C5.79321 11.0286 5.80674 11.0017 5.83383 11.0151C6.30767 11.3382 6.84922 11.5266 7.40429 11.5805C7.49906 11.5939 7.55321 11.4728 7.48553 11.4189L4.54766 8.48456C4.47998 8.41725 4.37166 8.4711 4.38521 8.56533C4.43935 9.1172 4.6289 9.65562 4.95382 10.1267C4.96736 10.1402 4.94028 10.1671 4.92674 10.1537L3.26151 8.49802C3.16674 8.40381 3.00427 8.48456 3.01781 8.6057C3.09904 9.45371 3.39689 10.2883 3.92489 11.0017C3.93843 11.0151 3.91135 11.042 3.89782 11.0286L1.35257 8.51149C1.21719 8.37688 0.987033 8.48456 1.00057 8.68647C1.1495 10.2479 1.82642 11.7824 3.03136 12.9803ZM12.9686 12.9803C11.7637 14.1783 10.2203 14.8514 8.6363 14.9994C8.44676 15.0129 8.33845 14.7841 8.47383 14.6494L11.0055 12.1323C11.0191 12.1189 11.0055 12.092 10.9785 12.1054C10.2474 12.6304 9.42154 12.9265 8.5686 13.0073C8.43322 13.0207 8.36553 12.8592 8.4603 12.765L10.1932 11.042C10.2068 11.0286 10.1932 11.0017 10.1661 11.0151C9.6923 11.3382 9.15076 11.5266 8.59569 11.5805C8.50092 11.5939 8.44676 11.4728 8.51446 11.4189L11.4523 8.49802C11.52 8.43072 11.6283 8.48456 11.6148 8.57878C11.5606 9.13066 11.3711 9.66908 11.0462 10.1402C11.0326 10.1537 11.0597 10.1806 11.0732 10.1671L12.7385 8.51149C12.8332 8.41725 12.9957 8.49802 12.9822 8.61916C12.9145 9.45371 12.6166 10.2883 12.0886 11.0151C12.0751 11.0286 12.1022 11.0555 12.1157 11.042L14.6474 8.52495C14.7828 8.39033 15.0129 8.49802 14.9994 8.69993C14.8504 10.2479 14.1736 11.7824 12.9686 12.9803Z" fill="currentColor"/></svg>

<svg xmlns="http://www.w3.org/2000/svg" fill="none" viewBox="0 0 16 16" width="1em" height="1em"><path fill="currentColor" d="M12.969 3.02A7.056 7.056 0 0 0 8.636 1c-.19-.013-.298.216-.162.35l2.531 2.518c.014.013 0 .04-.027.027a4.897 4.897 0 0 0-2.41-.902c-.135-.014-.202.148-.108.242l1.733 1.723c.014.013 0 .04-.027.027a3.36 3.36 0 0 0-1.57-.565c-.095-.014-.15.107-.082.161l2.938 2.92a.095.095 0 0 0 .163-.08 3.317 3.317 0 0 0-.569-1.561c-.013-.014.014-.04.027-.027l1.665 1.655c.095.095.258.014.244-.107a4.646 4.646 0 0 0-.893-2.383c-.014-.013.013-.04.027-.027l2.531 2.517c.136.135.366.027.352-.175a6.981 6.981 0 0 0-2.03-4.293Zm-9.938 0A7.056 7.056 0 0 1 7.364 1c.19-.013.298.216.162.35L4.994 3.869c-.013.013 0 .04.028.027a4.896 4.896 0 0 1 2.41-.902c.135-.014.202.148.108.242L5.807 4.958c-.014.013 0 .04.027.027a3.36 3.36 0 0 1 1.57-.565c.095-.014.15.107.082.161L4.548 7.515a.095.095 0 0 1-.163-.08 3.32 3.32 0 0 1 .569-1.562c.013-.013-.014-.04-.027-.027L3.262 7.502c-.095.094-.258.013-.244-.108a4.787 4.787 0 0 1 .907-2.396c.013-.013-.014-.04-.027-.027L1.353 7.488c-.136.135-.366.027-.352-.175A6.98 6.98 0 0 1 3.03 3.02Zm0 9.96A7.056 7.056 0 0 0 7.364 15c.19.013.298-.216.162-.35l-2.532-2.518c-.013-.013 0-.04.028-.027a4.896 4.896 0 0 0 2.41.902c.135.014.202-.148.108-.242l-1.733-1.723c-.014-.013 0-.04.027-.027a3.36 3.36 0 0 0 1.57.566c.095.013.15-.108.082-.162L4.548 8.485a.095.095 0 0 0-.163.08 3.32 3.32 0 0 0 .569 1.562c.013.013-.014.04-.027.027L3.262 8.498c-.095-.094-.258-.013-.244.108.081.848.379 1.682.907 2.396.013.013-.014.04-.027.027L1.353 8.51c-.136-.134-.366-.026-.352.175a6.98 6.98 0 0 0 2.03 4.294Zm9.938 0A7.056 7.056 0 0 1 8.636 15c-.19.013-.298-.216-.162-.35l2.531-2.518c.014-.013 0-.04-.027-.027a4.897 4.897 0 0 1-2.41.902c-.135.014-.202-.148-.108-.242l1.733-1.723c.014-.013 0-.04-.027-.027a3.36 3.36 0 0 1-1.57.566c-.095.013-.15-.108-.082-.162l2.938-2.921a.095.095 0 0 1 .163.08 3.317 3.317 0 0 1-.569 1.562c-.013.014.014.04.027.027l1.665-1.656c.095-.094.258-.013.244.108a4.735 4.735 0 0 1-.893 2.396c-.014.014.013.04.027.027l2.531-2.517c.136-.135.366-.027.352.175a6.98 6.98 0 0 1-2.03 4.28Z"/></svg>
